resources/haticons/SVG/leak_add.svg

<!-- Generated by IcoMoon.io -->
<svg version="1.1" xmlns="http://www.w3.org/2000/svg" width="24" height="24" viewBox="0 0 24 24">
<title>leak_add</title>
<path d="M14.016 21q0-2.906 2.039-4.945t4.945-2.039v1.969q-2.063 0-3.539 1.477t-1.477 3.539h-1.969zM18 21q0-1.219 0.891-2.109t2.109-0.891v3h-3zM9.984 21q0-4.547 3.234-7.781t7.781-3.234v2.016q-3.75 0-6.375 2.625t-2.625 6.375h-2.016zM9.984 3q0 2.906-2.039 4.945t-4.945 2.039v-1.969q2.063 0 3.539-1.477t1.477-3.539h1.969zM14.016 3q0 4.547-3.234 7.781t-7.781 3.234v-2.016q3.75 0 6.375-2.625t2.625-6.375h2.016zM6 3q0 1.219-0.891 2.109t-2.109 0.891v-3h3z"></path>
</svg>

<svg xmlns="http://www.w3.org/2000/svg" width="24" height="24"><path d="M14.016 21q0-2.906 2.039-4.945T21 14.016v1.969q-2.063 0-3.539 1.477t-1.477 3.539h-1.969zM18 21q0-1.219.891-2.109T21 18v3h-3zm-8.016 0q0-4.547 3.234-7.781t7.781-3.234v2.016q-3.75 0-6.375 2.625t-2.625 6.375H9.983zm0-18q0 2.906-2.039 4.945T3 9.984V8.015q2.063 0 3.539-1.477t1.477-3.539h1.969zm4.032 0q0 4.547-3.234 7.781t-7.781 3.234v-2.016q3.75 0 6.375-2.625t2.625-6.375h2.016zM6 3q0 1.219-.891 2.109T3 6V3h3z"/></svg>
